UI/Tools/SVG/road_outline_24px.svg

<svg xmlns="http://www.w3.org/2000/svg" width="24" height="24" viewBox="0 0 24 24"><rect width="24" height="24" style="fill:none"/><path d="M14.86,2,2,14.86,9.14,22,22,9.14ZM7.7,17.73l2.16-2.16L8.43,14.14,6.27,16.3,4.83,14.86l10-10L16.3,6.27,14.14,8.43l1.43,1.43L17.73,7.7l1.44,1.44-10,10Zm5-7.87,1.43,1.43-2.85,2.85L9.86,12.71Z"/></svg>

<svg width="24" height="24" viewBox="0 0 24 24" fill="none" xmlns="http://www.w3.org/2000/svg">
<path d="M14.86 2L2 14.86L9.14 22L22 9.14L14.86 2ZM7.7 17.73L9.86 15.57L8.43 14.14L6.27 16.3L4.83 14.86L14.83 4.86L16.3 6.27L14.14 8.43L15.57 9.86L17.73 7.7L19.17 9.14L9.17 19.14L7.7 17.73ZM12.7 9.86L14.13 11.29L11.28 14.14L9.86 12.71L12.7 9.86Z" fill="#0F1621"/>
</svg>
